app/assets/img/askdarcel.svg

<svg fill="none" height="20" viewBox="0 0 108 20" width="108" xmlns="http://www.w3.org/2000/svg"><g fill="#276ce5"><path clip-rule="evenodd" d="m65.4079 0c.3167 0 1.1937.389769 1.1937.803898 0 .576462-.2401.934662-.4723 1.281192l-.0393.05864c-.1083.15648-.1809.31295-.259.48119-.08.17212-.1658.35698-.3012.56631-.366.5868-.7614 1.18667-1.1604 1.79199-1.1414 1.73175-2.3122 3.50813-2.9079 5.15078l-.3897 1.0718c-1.4617 4.0926-1.8514 5.8709-1.8514 6.7479 0 .596.09.922.1477 1.1309.0271.0984.0472.1709.0472.2333 0 .0731-.0244.0974-.0975.1705-.0867.0868-.1467.1625-.1979.2271-.1499.1895-.2251.2845-.6791.2845-.2192 0-.8526-.3167-.8769-.4629-.0975-.5602-.1462-1.0718-.1462-1.5834 0-1.3736.3227-2.5106.584-3.4311l.0494-.1742c.1378-.4826.4585-1.1357.6344-1.4939.0727-.148.1207-.2459.1207-.2601 0-.0244 0-.0487-.0487-.0487s-.0974.0487-.2436.2192c-.2002.2328-.3999.4668-.5996.7009l-.0146.0171c-1.7399 2.0395-3.486 4.0861-5.6221 5.3722-.2436.1461-.5359.1705-.7308.1705-.4872 0-1.6322-.5847-1.7296-.7552-.268-.4628-.4141-.9013-.4141-1.3885 0-.6821.2679-1.486.8526-2.6066 1.1693-2.2168 3.0938-4.117 5.1401-5.48115.3654-.2436 1.1206-.46285 1.7539-.46285.268 0 .5116.04872.6821.12181.123.05673.2789.1098.4408.1649.2553.08684.5253.17871.7042.29794.1218 0 .1705 0 .1948-.02436 1.4569-1.58292 2.4224-3.27863 3.3782-4.9574.7064-1.24065 1.4076-2.47205 2.2979-3.641864.1461-.1948834.2436-.292326.5602-.292326zm-7.235 10.0122c0 .2945-.111.4166-.2802.6027-.0687.0756-.147.1618-.2314.2743-1.5834 2.1193-3.3861 4.3118-5.4811 5.9439-.1166.0907-.2124.1331-.2986.1713-.076.0337-.1445.064-.213.1211-.0974.073-.1462.0974-.2436.0974-.1218 0-.1705-.3167-.1705-.5603 0-.0731.0487-.2436.073-.3167.9988-2.6796 3.3131-5.2619 5.6761-6.45552.1948-.09745.3654-.12181.609-.12181.3897 0 .5603.09745.5603.24363z" fill-rule="evenodd"/><path clip-rule="evenodd" d="m11.084 2.19245c.2435 0 .5115.17052.5846.31669l5.5055 16.17536c.0731.1462-.0244.3167-.2193.3167h-4.8233c-.2193 0-.4142-.1218-.5116-.3167l-.7308-2.5578h-4.57982l-.73082 2.5578c-.09744.1949-.29233.3167-.51157.3167h-4.823376c-.1948854 0-.2923281-.1705-.2192537-.3167l5.5054797-16.17536c.07309-.14617.34105-.31669.58465-.31669zm-2.48482 5.82217-1.31547 4.62848h2.63093z" fill-rule="evenodd"/><path d="m17.4177 17.5639c-.1218-.0974-.1705-.2436-.0975-.3897l1.4617-3.0938c.0974-.2436.2923-.3167.4628-.1949 1.2181.7795 2.6553 1.3155 3.5567 1.3155.6821 0 1.1449-.3411 1.1449-.8526 0-.826-1.0005-1.2206-2.2393-1.7092-2.0129-.7939-4.6547-1.8359-4.6547-5.37976 0-3.26431 2.4604-5.4324 6.1632-5.4324 1.8514 0 4.0195.73082 5.4568 1.80268.1218.09744.1705.24361.0974.38977l-1.6809 2.97198c-.1218.21925-.2923.29233-.4628.19489-1.1206-.63338-2.3874-1.04751-3.2156-1.04751-.7065 0-1.1937.36541-1.1937.90135 0 .66403.8869.97708 2.0244 1.37862 2.034.71801 4.8696 1.71898 4.8696 5.51538 0 3.2643-2.5091 5.4324-6.2606 5.4324-1.8271 0-3.9952-.7308-5.4324-1.8027z"/><path d="m44.4822 2.48478-4.8234 7.72232 5.1888 8.5018c.1219.1705.0244.2923-.1705.2923h-5.6516c-.1706 0-.4142-.1218-.5116-.2923l-3.0207-6.0901v6.0414c0 .1705-.1462.341-.3654.341h-4.3118c-.1706 0-.3411-.1705-.3411-.341v-16.10234c0-.19489.1705-.36541.3411-.36541h4.3118c.2192 0 .3654.17052.3654.36541v5.45675l2.9233-5.52983c.0974-.17053.341-.29233.5603-.29233h5.3349c.1949 0 .268.1218.1705.29233z"/><path clip-rule="evenodd" d="m72.6674 7.91718c.1218.1218.3167.34104.3654.4872.0974.24361.3167.46286.5846.46286.1219 0 .4873.02436.6821.31668.0488.07308.0488.09744.0488.14617 0 .09744-.0488.19488-.0975.26796-1.0718 1.46165-2.363 3.28865-2.8258 5.16445-.1705.6821-.341 1.4129-.341 2.1681 0 .6333.1461 1.2667.5115 1.827.0244.0487.0487.0975.0487.1462s-.0974.2923-.5115.341c-.0566.0095-.1169.0262-.178.0432-.0966.0268-.1953.0543-.2849.0543-.3654 0-.9013-.1706-1.0475-.4872-.3167-.7065-.4141-1.413-.4141-2.0951 0-.5552.0562-.9276.0833-1.1066.0085-.0563.0141-.0939.0141-.1114 0-.0974 0-.1218-.0974-.1218-.0975 0-.3167.1705-.5847.4385l-1.3154 1.218c-1.2668 1.1937-2.0463 1.5348-2.8989 1.8271-.1462.0487-.2924.0974-.3898.0974-.268 0-.5603-.1705-1.7052-1.0962-.1218-.0974-.536-.5116-.536-1.4373 0-.8039.268-1.827 1.4617-3.6053 1.4267-2.1281 2.7575-3.10386 3.4917-3.64228l.0162-.01184c1.1936-.87697 2.4604-1.51035 3.8977-1.92448.1705-.04872.3654-.07308.5359-.07308.5603 0 1.0475.26797 1.486.70646zm-1.1937.80389c.4141 0 .5603.31669.5603.48721 0 .14617-.0487.29233-.1218.36541-.268.26797-.5359.60901-.7065.92571-.8812 1.6415-2.4243 2.9398-4.0554 4.3123-.6685.5625-1.3517 1.1374-2.0103 1.7535-.4385.4141-.9988.6821-1.1937.6821-.4385 0-.5359-.3654-.5359-.6578 0-.7064.8039-2.1437 1.827-3.3861 1.3886-1.6809 3.1912-3.0207 5.4811-4.23872.3167-.17052.6821-.24361.7552-.24361z" fill-rule="evenodd"/><path d="m76.5163 8.06334c.3411 0 .7309.14616.804.26797.2435.41412.341.77953.3654 1.19366.0243.34105-.0244.65773-.1462.99883-.0322.1286-.0549.2101-.0703.2651-.0194.0695-.0272.0974-.0272.1246 0 .0731.0244.0731.0731.0731.0487.0244.1218 0 .3167-.1705 1.3398-1.02316 2.5092-1.70526 3.3861-1.99758.0731-.02436.2193-.04873.2924-.04873.6821 0 1.3642.19489 1.7783.6821.1218.09744.1705.31669.1461.41413.0488.70648-.6333 1.07188-.8282 1.07188-.1859 0-.378-.063-.5669-.125-.1824-.0598-.3618-.1186-.5293-.1186-.1178-.0236-.1673-.0016-.3686.088l-.0212.0094c-2.6553 1.2424-5.3837 3.4836-6.1876 7.1864-.1218.4628-.3898.8526-.5603.9744-.1218.1462-.341.2192-.4385.2192-.3299-.0206-.5028-.2332-.6515-.4163l-.0008-.0009c-.0267-.0328-.0526-.0647-.0785-.0943-.2436-.2436-.4385-.6334-.4628-.9257 0-.4641.3211-.9204.655-1.3949.262-.3724.5319-.7559.6604-1.163.1188-.3609.2402-.7208.3618-1.081l.001-.0029.0011-.0033c.5012-1.4849 1.0037-2.9736 1.317-4.54007.0122-.10954.0244-.19476.0335-.2587.0091-.06376.0152-.10675.0152-.13107 0-.0698-.0444-.15072-.0935-.2401-.0537-.09777-.113-.20565-.1257-.32019 0-.19488.3898-.53593.95-.53593z"/><path clip-rule="evenodd" d="m86.3824 16.0049c-1.1937.9013-2.3387 1.5347-3.4592 1.5347-.2193 0-.4142-.1949-.4142-.5116 0-.609.5603-2.2168 1.4129-3.7272.8283-1.4616 1.9489-2.8989 2.972-3.92199.1949-.19489.2436-.24361.3898-.24361.1218 0 .1949.14616.1949.24361 0 .18402-.1195.41148-.2456.65159-.141.2685-.2903.5529-.2903.81 0 .1949.073.3898.2679.536l.6334.4628c.1462.1218.3167.1705.4872.1705.3167 0 .4629-.1705.4629-.3654 0-.6023.3768-1.3505.6239-1.84096.1026-.2038.1829-.36308.2043-.44889.0244-.09745.0244-.12181.0244-.17053 0-.02507-.0058-.04441-.0133-.06981-.0144-.04866-.0355-.11956-.0355-.2956 0-.19488 0-.2436-.0974-.34104-.6334-.63338-1.7052-1.02315-2.5335-1.02315-.1949 0-.2436 0-.3898.07308-2.0462 1.02315-3.8002 3.9951-5.0669 6.5286-.1297.2592-.203.5748-.2521.7861-.0155.0667-.0286.1231-.0403.164-.0287.1027-.0589.2061-.0891.3099-.1491.5113-.3006 1.0312-.3006 1.5171 0 .3898.0974.7552.2923 1.145.1218.2436 1.1206 1.1936 2.4604 1.1936 1.0231 0 2.2412-.7064 3.6053-1.8026.8984-.7313 1.6713-1.3371 2.3496-1.6945.0519.4004.1342.8283.2327 1.1098.2679.8039.7308 1.4129 1.218 1.6809.1705.0974 1.0231.4872 1.5591.6821.3897.1461.6334.1705.9257.1705.3167 0 .4385 0 .877-.2436 1.888-1.0434 2.9463-1.8714 3.6852-2.5648-.0045.0754-.0068.1508-.0068.2262 0 .2923.0244.5603.0731.8282.2436 1.3399 2.2652 1.8758 2.4362 1.8758 1.469 0 2.4-1.1356 3.332-2.2716.257-.3146.515-.6291.785-.9196.068-.0749.136-.1365.199-.1933.162-.1463.288-.2607.288-.4888 0-.3898-.633-.5603-.828-.5603-.682 0-1.391.7668-2.083 1.5154-.446.4815-.884.9555-1.303 1.213-.122.0731-.268.0974-.415.0974-.219 0-.414-.0731-.487-.2923-.0972-.3167-.1215-.609-.1215-.9014 0-.8266.3185-1.5663.6435-2.3197.096-.2234.193-.4481.282-.6766 1.047-2.7675 2.688-5.25081 4.359-7.77917.623-.94348 1.251-1.89324 1.853-2.86638.146-.24361.244-.53594.244-.85262 0-.24361-.049-.46285-.195-.6821-.122-.17052-.39-.26796-.634-.26796-.125 0-.235.01075-.352.02216-.131.01287-.271.02656-.451.02656-.683 0-.951.70438-1.201 1.36296-.098.25795-.193.50886-.31.70768-1.851 3.16687-4.019 7.06457-5.0668 9.79297-.0734.1902-.1464.3754-.2176.5562-.0367.093-.0728.1848-.1084.2755-.5771.384-1.0893.8267-1.6085 1.2754-.7226.6244-1.4587 1.2605-2.4017 1.7662-1.0962.5846-1.4616.6821-1.8757.6821-.2436 0-.4872-.0487-.7552-.1949-.2193-.1218-.5847-.6334-.5847-1.0231 0-.0731.0244-.1218.1462-.1949 2.0706-1.145 3.9708-3.2643 5.6516-5.1645.3411-.3897.536-.6577.7796-1.1449.2923-.58465.5603-1.12058.5603-1.75396 0-.97442-.5116-1.41291-.7796-1.51035-.4872-.17053-.8282-.26797-1.486-.26797-1.1936 0-2.1924.65774-2.6065 1.09623-1.8514 1.9732-3.508 4.11695-4.1901 6.60175-.0293.1027-.052.1967-.0695.2837-.0596-.0252-.1184-.0401-.1741-.0401-.6821 0-1.9001.8526-2.9719 1.6565zm9.2083-5.7004c-1.0963 1.3155-2.2899 2.6553-3.7272 3.7515-.0731.0488-.1218.0731-.1705.0731-.0244 0-.0488-.0243-.0488-.1218.536-2.1681 2.2412-4.16564 3.8246-5.57855.1505-.13542.1987-.15932.2768-.19797.0483-.02393.108-.05352.2105-.11872l.0243-.01628c.1407-.0942.3031-.20297.4872-.20297.1462 0 .1462.09745.1462.29233 0 .44076-.1988.74898-.4071 1.07191l-.0314.04868c-.1373.2112-.1967.34458-.2498.46364-.0694.15559-.1278.28673-.3348.53513z" fill-rule="evenodd"/></g></svg>

<svg width="108" height="20" viewBox="0 0 108 20" fill="none" xmlns="http://www.w3.org/2000/svg">
<path fill-rule="evenodd" clip-rule="evenodd" d="M65.4079 0C65.7246 0 66.6016 0.389769 66.6016 0.803898C66.6016 1.38036 66.3615 1.73856 66.1293 2.08509L66.09 2.14373C65.9817 2.30021 65.9091 2.45668 65.831 2.62492C65.751 2.79704 65.6652 2.9819 65.5298 3.19123C65.1638 3.77803 64.7684 4.3779 64.3694 4.98322C63.228 6.71497 62.0572 8.49135 61.4615 10.134L61.0718 11.2058C59.6101 15.2984 59.2204 17.0767 59.2204 17.9537C59.2204 18.5497 59.3104 18.8757 59.3681 19.0846C59.3952 19.183 59.4153 19.2555 59.4153 19.3179C59.4153 19.391 59.3909 19.4153 59.3178 19.4884C59.2311 19.5752 59.1711 19.6509 59.1199 19.7155C58.97 19.905 58.8948 20 58.4408 20C58.2216 20 57.5882 19.6833 57.5639 19.5371C57.4664 18.9769 57.4177 18.4653 57.4177 17.9537C57.4177 16.5801 57.7404 15.4431 58.0017 14.5226L58.0511 14.3484C58.1889 13.8658 58.5096 13.2127 58.6855 12.8545C58.7582 12.7065 58.8062 12.6086 58.8062 12.5944C58.8062 12.57 58.8062 12.5457 58.7575 12.5457C58.7088 12.5457 58.6601 12.5944 58.5139 12.7649C58.3137 12.9977 58.114 13.2317 57.9143 13.4658L57.8997 13.4829C56.1598 15.5224 54.4137 17.569 52.2776 18.8551C52.034 19.0012 51.7417 19.0256 51.5468 19.0256C51.0596 19.0256 49.9146 18.4409 49.8172 18.2704C49.5492 17.8076 49.4031 17.3691 49.4031 16.8819C49.4031 16.1998 49.671 15.3959 50.2557 14.2753C51.425 12.0585 53.3495 10.1583 55.3958 8.79415C55.7612 8.55055 56.5164 8.3313 57.1497 8.3313C57.4177 8.3313 57.6613 8.38002 57.8318 8.45311C57.9548 8.50984 58.1107 8.56291 58.2726 8.61801C58.5279 8.70485 58.7979 8.79672 58.9768 8.91595C59.0986 8.91595 59.1473 8.91595 59.1716 8.89159C60.6285 7.30867 61.594 5.61296 62.5498 3.93419C63.2562 2.69354 63.9574 1.46214 64.8477 0.292326C64.9938 0.0974426 65.0913 0 65.4079 0ZM58.1729 10.0122C58.1729 10.3067 58.0619 10.4288 57.8927 10.6149C57.824 10.6905 57.7457 10.7767 57.6613 10.8892C56.0779 13.0085 54.2752 15.201 52.1802 16.8331C52.0636 16.9238 51.9678 16.9662 51.8816 17.0044C51.8056 17.0381 51.7371 17.0684 51.6686 17.1255C51.5712 17.1985 51.5224 17.2229 51.425 17.2229C51.3032 17.2229 51.2545 16.9062 51.2545 16.6626C51.2545 16.5895 51.3032 16.419 51.3275 16.3459C52.3263 13.6663 54.6406 11.084 57.0036 9.89038C57.1984 9.79293 57.369 9.76857 57.6126 9.76857C58.0023 9.76857 58.1729 9.86602 58.1729 10.0122Z" fill="#276CE5"/>
<path fill-rule="evenodd" clip-rule="evenodd" d="M11.084 2.19245C11.3275 2.19245 11.5955 2.36297 11.6686 2.50914L17.1741 18.6845C17.2472 18.8307 17.1497 19.0012 16.9548 19.0012H12.1315C11.9122 19.0012 11.7173 18.8794 11.6199 18.6845L10.8891 16.1267H6.30928L5.57846 18.6845C5.48102 18.8794 5.28613 19.0012 5.06689 19.0012H0.243514C0.0486286 19.0012 -0.0488141 18.8307 0.0242603 18.6845L5.52974 2.50914C5.60283 2.36297 5.87079 2.19245 6.11439 2.19245H11.084ZM8.59918 8.01462L7.28371 12.6431H9.91464L8.59918 8.01462Z" fill="#276CE5"/>
<path d="M17.4177 17.5639C17.2959 17.4665 17.2472 17.3203 17.3202 17.1742L18.7819 14.0804C18.8793 13.8368 19.0742 13.7637 19.2447 13.8855C20.4628 14.665 21.9 15.201 22.8014 15.201C23.4835 15.201 23.9463 14.8599 23.9463 14.3484C23.9463 13.5224 22.9458 13.1278 21.707 12.6392C19.6941 11.8453 17.0523 10.8033 17.0523 7.25944C17.0523 3.99513 19.5127 1.82704 23.2155 1.82704C25.0669 1.82704 27.235 2.55786 28.6723 3.62972C28.7941 3.72716 28.8428 3.87333 28.7697 4.01949L27.0888 6.99147C26.967 7.21072 26.7965 7.2838 26.626 7.18636C25.5054 6.55298 24.2386 6.13885 23.4104 6.13885C22.7039 6.13885 22.2167 6.50426 22.2167 7.0402C22.2167 7.70423 23.1036 8.01728 24.2411 8.41882C26.2751 9.13683 29.1107 10.1378 29.1107 13.9342C29.1107 17.1985 26.6016 19.3666 22.8501 19.3666C21.023 19.3666 18.8549 18.6358 17.4177 17.5639Z" fill="#276CE5"/>
<path d="M44.4822 2.48478L39.6588 10.2071L44.8476 18.7089C44.9695 18.8794 44.872 19.0012 44.6771 19.0012H39.0255C38.8549 19.0012 38.6113 18.8794 38.5139 18.7089L35.4932 12.6188V18.6602C35.4932 18.8307 35.347 19.0012 35.1278 19.0012H30.816C30.6454 19.0012 30.4749 18.8307 30.4749 18.6602V2.55786C30.4749 2.36297 30.6454 2.19245 30.816 2.19245H35.1278C35.347 2.19245 35.4932 2.36297 35.4932 2.55786V8.01461L38.4165 2.48478C38.5139 2.31425 38.7575 2.19245 38.9768 2.19245H44.3117C44.5066 2.19245 44.5797 2.31425 44.4822 2.48478Z" fill="#276CE5"/>
<path fill-rule="evenodd" clip-rule="evenodd" d="M72.6674 7.91718C72.7892 8.03898 72.9841 8.25822 73.0328 8.40438C73.1302 8.64799 73.3495 8.86724 73.6174 8.86724C73.7393 8.86724 74.1047 8.8916 74.2995 9.18392C74.3483 9.257 74.3483 9.28136 74.3483 9.33009C74.3483 9.42753 74.2995 9.52497 74.2508 9.59805C73.179 11.0597 71.8878 12.8867 71.425 14.7625C71.2545 15.4446 71.084 16.1754 71.084 16.9306C71.084 17.5639 71.2301 18.1973 71.5955 18.7576C71.6199 18.8063 71.6442 18.8551 71.6442 18.9038C71.6442 18.9525 71.5468 19.1961 71.1327 19.2448C71.0761 19.2543 71.0158 19.271 70.9547 19.288C70.8581 19.3148 70.7594 19.3423 70.6698 19.3423C70.3044 19.3423 69.7685 19.1717 69.6223 18.8551C69.3056 18.1486 69.2082 17.4421 69.2082 16.76C69.2082 16.2048 69.2644 15.8324 69.2915 15.6534C69.3 15.5971 69.3056 15.5595 69.3056 15.542C69.3056 15.4446 69.3056 15.4202 69.2082 15.4202C69.1107 15.4202 68.8915 15.5907 68.6235 15.8587L67.3081 17.0767C66.0413 18.2704 65.2618 18.6115 64.4092 18.9038C64.263 18.9525 64.1168 19.0012 64.0194 19.0012C63.7514 19.0012 63.4591 18.8307 62.3142 17.905C62.1924 17.8076 61.7782 17.3934 61.7782 16.4677C61.7782 15.6638 62.0462 14.6407 63.2399 12.8624C64.6666 10.7343 65.9974 9.75854 66.7316 9.22012L66.7478 9.20828C67.9414 8.33131 69.2082 7.69793 70.6455 7.2838C70.816 7.23508 71.0109 7.21072 71.1814 7.21072C71.7417 7.21072 72.2289 7.47869 72.6674 7.91718ZM71.4737 8.72107C71.8878 8.72107 72.034 9.03776 72.034 9.20828C72.034 9.35445 71.9853 9.50061 71.9122 9.57369C71.6442 9.84166 71.3763 10.1827 71.2057 10.4994C70.3245 12.1409 68.7814 13.4392 67.1503 14.8117C66.4818 15.3742 65.7986 15.9491 65.14 16.5652C64.7015 16.9793 64.1412 17.2473 63.9463 17.2473C63.5078 17.2473 63.4104 16.8819 63.4104 16.5895C63.4104 15.8831 64.2143 14.4458 65.2374 13.2034C66.626 11.5225 68.4286 10.1827 70.7185 8.96468C71.0352 8.79416 71.4006 8.72107 71.4737 8.72107Z" fill="#276CE5"/>
<path d="M76.5163 8.06334C76.8574 8.06334 77.2472 8.2095 77.3203 8.33131C77.5638 8.74543 77.6613 9.11084 77.6857 9.52497C77.71 9.86602 77.6613 10.1827 77.5395 10.5238C77.5073 10.6524 77.4846 10.7339 77.4692 10.7889C77.4498 10.8584 77.442 10.8863 77.442 10.9135C77.442 10.9866 77.4664 10.9866 77.5151 10.9866C77.5638 11.011 77.6369 10.9866 77.8318 10.8161C79.1716 9.79294 80.341 9.11084 81.2179 8.81852C81.291 8.79416 81.4372 8.76979 81.5103 8.76979C82.1924 8.76979 82.8745 8.96468 83.2886 9.45189C83.4104 9.54933 83.4591 9.76858 83.4347 9.86602C83.4835 10.5725 82.8014 10.9379 82.6065 10.9379C82.4206 10.9379 82.2285 10.8749 82.0396 10.8129C81.8572 10.7531 81.6778 10.6943 81.5103 10.6943C81.3925 10.6707 81.343 10.6927 81.1417 10.7823L81.1205 10.7917C78.4652 12.0341 75.7368 14.2753 74.9329 17.9781C74.8111 18.4409 74.5431 18.8307 74.3726 18.9525C74.2508 19.0987 74.0316 19.1717 73.9341 19.1717C73.6042 19.1511 73.4313 18.9385 73.2826 18.7554L73.2818 18.7545C73.2551 18.7217 73.2292 18.6898 73.2033 18.6602C72.9597 18.4166 72.7648 18.0268 72.7405 17.7345C72.7405 17.2704 73.0616 16.8141 73.3955 16.3396C73.6575 15.9672 73.9274 15.5837 74.0559 15.1766C74.1747 14.8157 74.2961 14.4558 74.4177 14.0956L74.4187 14.0927L74.4198 14.0894C74.921 12.6045 75.4235 11.1158 75.7368 9.54933C75.749 9.43979 75.7612 9.35457 75.7703 9.29063C75.7794 9.22687 75.7855 9.18388 75.7855 9.15956C75.7855 9.08976 75.7411 9.00884 75.692 8.91946C75.6383 8.82169 75.579 8.71381 75.5663 8.59927C75.5663 8.40439 75.9561 8.06334 76.5163 8.06334Z" fill="#276CE5"/>
<path fill-rule="evenodd" clip-rule="evenodd" d="M86.3824 16.0049C85.1887 16.9062 84.0437 17.5396 82.9232 17.5396C82.7039 17.5396 82.509 17.3447 82.509 17.028C82.509 16.419 83.0693 14.8112 83.9219 13.3008C84.7502 11.8392 85.8708 10.4019 86.8939 9.37881C87.0888 9.18392 87.1375 9.1352 87.2837 9.1352C87.4055 9.1352 87.4786 9.28136 87.4786 9.37881C87.4786 9.56283 87.3591 9.79029 87.233 10.0304C87.092 10.2989 86.9427 10.5833 86.9427 10.8404C86.9427 11.0353 87.0157 11.2302 87.2106 11.3764L87.844 11.8392C87.9902 11.961 88.1607 12.0097 88.3312 12.0097C88.6479 12.0097 88.7941 11.8392 88.7941 11.6443C88.7941 11.042 89.1709 10.2938 89.418 9.80334C89.5206 9.59954 89.6009 9.44026 89.6223 9.35445C89.6467 9.257 89.6467 9.23264 89.6467 9.18392C89.6467 9.15885 89.6409 9.13951 89.6334 9.11411C89.619 9.06545 89.5979 8.99455 89.5979 8.81851C89.5979 8.62363 89.5979 8.57491 89.5005 8.47747C88.8671 7.84409 87.7953 7.45432 86.967 7.45432C86.7721 7.45432 86.7234 7.45432 86.5772 7.5274C84.531 8.55055 82.777 11.5225 81.5103 14.056C81.3806 14.3152 81.3073 14.6308 81.2582 14.8421C81.2427 14.9088 81.2296 14.9652 81.2179 15.0061C81.1892 15.1088 81.159 15.2122 81.1288 15.316C80.9797 15.8273 80.8282 16.3472 80.8282 16.8331C80.8282 17.2229 80.9256 17.5883 81.1205 17.9781C81.2423 18.2217 82.2411 19.1717 83.5809 19.1717C84.604 19.1717 85.8221 18.4653 87.1862 17.3691C88.0846 16.6378 88.8575 16.032 89.5358 15.6746C89.5877 16.075 89.67 16.5029 89.7685 16.7844C90.0364 17.5883 90.4993 18.1973 90.9865 18.4653C91.157 18.5627 92.0096 18.9525 92.5456 19.1474C92.9353 19.2935 93.179 19.3179 93.4713 19.3179C93.788 19.3179 93.9098 19.3179 94.3483 19.0743C96.2363 18.0309 97.2946 17.2029 98.0335 16.5095C98.029 16.5849 98.0267 16.6603 98.0267 16.7357C98.0267 17.028 98.0511 17.296 98.0998 17.5639C98.3434 18.9038 100.365 19.4397 100.536 19.4397C102.005 19.4397 102.936 18.3041 103.868 17.1681C104.125 16.8535 104.383 16.539 104.653 16.2485C104.721 16.1736 104.789 16.112 104.852 16.0552C105.014 15.9089 105.14 15.7945 105.14 15.5664C105.14 15.1766 104.507 15.0061 104.312 15.0061C103.63 15.0061 102.921 15.7729 102.229 16.5215C101.783 17.003 101.345 17.477 100.926 17.7345C100.804 17.8076 100.658 17.8319 100.511 17.8319C100.292 17.8319 100.097 17.7588 100.024 17.5396C99.9268 17.2229 99.9025 16.9306 99.9025 16.6382C99.9025 15.8116 100.221 15.0719 100.546 14.3185C100.642 14.0951 100.739 13.8704 100.828 13.6419C101.875 10.8744 103.516 8.39109 105.187 5.86273C105.81 4.91925 106.438 3.96949 107.04 2.99635C107.186 2.75274 107.284 2.46041 107.284 2.14373C107.284 1.90012 107.235 1.68088 107.089 1.46163C106.967 1.29111 106.699 1.19367 106.455 1.19367C106.33 1.19367 106.22 1.20442 106.103 1.21583C105.972 1.2287 105.832 1.24239 105.652 1.24239C104.969 1.24239 104.701 1.94677 104.451 2.60535C104.353 2.8633 104.258 3.11421 104.141 3.31303C102.29 6.4799 100.122 10.3776 99.0742 13.106C99.0008 13.2962 98.9278 13.4814 98.8566 13.6622C98.8199 13.7552 98.7838 13.847 98.7482 13.9377C98.1711 14.3217 97.6589 14.7644 97.1397 15.2131C96.4171 15.8375 95.681 16.4736 94.738 16.9793C93.6418 17.5639 93.2764 17.6614 92.8623 17.6614C92.6187 17.6614 92.3751 17.6127 92.1071 17.4665C91.8878 17.3447 91.5224 16.8331 91.5224 16.4434C91.5224 16.3703 91.5468 16.3216 91.6686 16.2485C93.7392 15.1035 95.6394 12.9842 97.3202 11.084C97.6613 10.6943 97.8562 10.4263 98.0998 9.9391C98.3921 9.35445 98.6601 8.81852 98.6601 8.18514C98.6601 7.21072 98.1485 6.77223 97.8805 6.67479C97.3933 6.50426 97.0523 6.40682 96.3945 6.40682C95.2009 6.40682 94.2021 7.06456 93.788 7.50305C91.9366 9.47625 90.28 11.62 89.5979 14.1048C89.5686 14.2075 89.5459 14.3015 89.5284 14.3885C89.4688 14.3633 89.41 14.3484 89.3543 14.3484C88.6722 14.3484 87.4542 15.201 86.3824 16.0049ZM95.5907 10.3045C94.4944 11.62 93.3008 12.9598 91.8635 14.056C91.7904 14.1048 91.7417 14.1291 91.693 14.1291C91.6686 14.1291 91.6442 14.1048 91.6442 14.0073C92.1802 11.8392 93.8854 9.84166 95.4688 8.42875C95.6193 8.29333 95.6675 8.26943 95.7456 8.23078C95.7939 8.20685 95.8536 8.17726 95.9561 8.11206L95.9804 8.09578C96.1211 8.00158 96.2835 7.89281 96.4676 7.89281C96.6138 7.89281 96.6138 7.99026 96.6138 8.18514C96.6138 8.6259 96.415 8.93412 96.2067 9.25705L96.1753 9.30573C96.038 9.51693 95.9786 9.65031 95.9255 9.76937C95.8561 9.92496 95.7977 10.0561 95.5907 10.3045Z" fill="#276CE5"/>
</svg>
